img/icons/map.svg

<svg width="25" height="25" viewBox="0 0 25 25" fill="none" xmlns="http://www.w3.org/2000/svg">
<path d="M24.1704 22.2803V6.70123C24.1823 6.44571 23.9848 6.22897 23.7293 6.2171C23.6748 6.21456 23.6204 6.22168 23.5684 6.23812V6.26127L21.4844 6.91426C21.7026 6.33016 21.8321 5.71665 21.8688 5.09423C21.8688 2.28077 19.588 0 16.7745 0C13.9611 0 11.6803 2.28077 11.6803 5.09423C11.7128 5.68754 11.833 6.27279 12.0369 6.8309L8.59135 5.59902C8.55135 5.5941 8.51094 5.5941 8.47094 5.59902H8.43389C8.37837 5.60001 8.32344 5.61101 8.2718 5.63144L1.12598 8.41011C0.961171 8.47281 0.846262 8.62361 0.82959 8.79913V16.246V24.3967C0.830342 24.6525 1.03828 24.8592 1.29409 24.8585C1.35065 24.8583 1.40669 24.8478 1.45942 24.8274L8.44315 22.1229L16.4087 24.9756C16.5048 25.0081 16.6089 25.0081 16.7051 24.9756L23.8463 22.7434C24.0469 22.6806 24.18 22.4904 24.1704 22.2803ZM16.7745 0.926224C19.0765 0.926224 20.9425 2.79228 20.9425 5.09423C20.9425 6.905 18.2241 11.9066 16.7745 14.3565C15.325 11.8881 12.6065 6.88184 12.6065 5.09423C12.6065 2.79228 14.4726 0.926224 16.7745 0.926224ZM23.2581 21.9608L17.0246 23.9105V20.3769C17.0246 20.1212 16.8173 19.9138 16.5615 19.9138C16.3057 19.9138 16.0984 20.1212 16.0984 20.3769V23.8781L8.90163 21.3032V18.3392C8.90163 18.0835 8.69427 17.8761 8.43852 17.8761C8.18277 17.8761 7.97541 18.0835 7.97541 18.3392V21.3032L1.75581 23.7252V16.5655L4.04359 15.6393C4.2884 15.5652 4.42675 15.3067 4.35266 15.0618C4.27856 14.817 4.02003 14.6787 3.77521 14.7528C3.74963 14.7605 3.72473 14.7705 3.70083 14.7825L1.75576 15.5652V9.11868L7.97535 6.71049V8.09983C7.97535 8.35558 8.18271 8.56294 8.43846 8.56294C8.69421 8.56294 8.90157 8.35558 8.90157 8.09983V6.69197L12.4536 7.96553C13.5928 10.5687 14.9032 13.0936 16.3762 15.5235C16.5088 15.7422 16.7936 15.8119 17.0123 15.6793C17.076 15.6407 17.1295 15.5872 17.1681 15.5235C18.6339 13.1079 19.9396 10.5985 21.0768 8.01184L23.2442 7.33106L23.258 14.9215L20.9101 15.4911C20.6543 15.5218 20.4718 15.754 20.5025 16.0098C20.5332 16.2655 20.7655 16.448 21.0212 16.4173C21.0581 16.4218 21.0954 16.4218 21.1324 16.4173L23.258 15.8986V21.9608H23.2581Z" fill="#2D383F"/>
<path d="M16.7556 2.40353C15.2696 2.40353 14.0649 3.6082 14.0649 5.09421C14.0649 6.58022 15.2696 7.78489 16.7556 7.78489C18.2406 7.78235 19.4438 6.57918 19.4463 5.09421C19.4463 3.6082 18.2416 2.40353 16.7556 2.40353ZM16.7556 6.85867C15.7895 6.84605 15.0121 6.0605 15.0097 5.09421H14.9912C14.9912 4.11971 15.7811 3.32976 16.7556 3.32976C17.7301 3.32976 18.5201 4.11971 18.5201 5.09421C18.5201 6.06872 17.7301 6.85867 16.7556 6.85867Z" fill="#2D383F"/>
<path d="M10.6981 13.9675V13.9813L8.45661 13.0134C8.34251 12.9659 8.21411 12.9659 8.10001 13.0134L6.20589 13.7776C5.96802 13.8735 5.85294 14.1441 5.94886 14.3819C6.04478 14.6198 6.31536 14.7349 6.55322 14.639L8.26673 13.9489L10.3276 14.8196C10.3861 14.8445 10.4492 14.8571 10.5128 14.8566C10.7686 14.8587 10.9776 14.6531 10.9797 14.3973C10.9812 14.2103 10.8701 14.0407 10.6981 13.9675Z" fill="#2D383F"/>
<path d="M18.27 16.616C18.201 16.3929 17.9766 16.2561 17.7467 16.2969L17.7513 16.2598L16.6028 16.5377L14.6578 15.6948C14.4224 15.5925 14.1487 15.7003 14.0465 15.9356C13.9442 16.171 14.052 16.4447 14.2873 16.5469L16.3713 17.4732C16.4298 17.4981 16.4929 17.5107 16.5565 17.5102H16.6677L17.9644 17.1953C18.2087 17.1197 18.3455 16.8604 18.27 16.616Z" fill="#2D383F"/>
</svg>

<svg width="25" height="25" fill="none" xmlns="http://www.w3.org/2000/svg"><path d="M24.17 22.28V6.701a.463.463 0 00-.602-.463v.023l-2.084.653a6.253 6.253 0 00.385-1.82 5.094 5.094 0 00-10.189 0 6.02 6.02 0 00.357 1.737L8.59 5.599a.493.493 0 00-.12 0h-.037a.463.463 0 00-.162.032l-7.146 2.78a.463.463 0 00-.296.388v15.597a.463.463 0 00.63.431l6.983-2.704 7.966 2.853c.096.032.2.032.296 0l7.141-2.233a.463.463 0 00.324-.463zM16.774.926a4.168 4.168 0 014.168 4.168c0 1.811-2.718 6.813-4.168 9.262-1.449-2.468-4.168-7.474-4.168-9.262A4.168 4.168 0 0116.774.926zm6.484 21.035l-6.233 1.95v-3.534a.463.463 0 00-.927 0v3.501l-7.196-2.575V18.34a.463.463 0 00-.927 0v2.964l-6.22 2.422v-7.16l2.289-.926a.463.463 0 10-.343-.856l-1.945.782V9.12l6.22-2.409V8.1a.463.463 0 00.926 0V6.692l3.552 1.274a64.337 64.337 0 003.922 7.558.463.463 0 00.792 0 64.587 64.587 0 003.909-7.512l2.167-.68.014 7.59-2.348.57a.466.466 0 10.111.925.46.46 0 00.111 0l2.126-.518v6.062z" fill="#2D383F"/><path d="M16.756 2.404a2.69 2.69 0 100 5.381 2.69 2.69 0 000-5.381zm0 4.455a1.77 1.77 0 01-1.746-1.765h-.019a1.764 1.764 0 111.765 1.765zm-6.058 7.108v.014l-2.241-.968a.464.464 0 00-.357 0l-1.894.765a.464.464 0 10.347.861l1.714-.69 2.06.87a.464.464 0 00.186.038.463.463 0 00.185-.89zm7.572 2.649a.463.463 0 00-.523-.32l.004-.036-1.148.278-1.945-.843a.465.465 0 10-.37.852l2.083.926a.464.464 0 00.186.037h.11l1.297-.315a.463.463 0 00.306-.579z" fill="#2D383F"/></svg>
